X: 3
T: Petronella
R: reel
M: 4/4
L: 1/8
K: Dmaj
~ | gg/f/ e/d/c/B/ | Ae/c/ a/g/e/c/ | d2- d :||: dA | FA/F/ EA/F/ | DD DA | dc/d/ ed | ~


Tune 1083	Setting 14316

